static/images/icons/stakeholder_interviews.svg

<svg fill="none" height="80" viewBox="0 0 74 80" width="74" xmlns="http://www.w3.org/2000/svg"><g fill="currentColor"><path d="m52.876 41.8145c0 4.2432 3.348 7.616 7.56 7.616s7.56-3.3728 7.56-7.616-3.348-7.616-7.56-7.616c-4.104 0-7.56 3.3728-7.56 7.616zm7.56 4.896c-2.7 0-4.86-2.176-4.86-4.896s2.16-4.896 4.86-4.896 4.86 2.176 4.86 4.896c0 2.6112-2.16 4.896-4.86 4.896z"/><path d="m61.84 51.933c-5.94 0-10.908 4.5696-11.556 10.4448-.54-1.088-1.08-2.176-1.404-2.9376-.216-.544-.432-1.088-.648-1.5232-.54-1.3056-2.16-3.3728-4.968-3.3728l-.972-2.8288h.108c.972-.3264 1.728-1.088 2.16-1.9584.432-.9792.54-1.9584.108-2.9376l-1.188-3.4816c-.54-1.5232-2.052-2.6112-3.672-2.6112-.432 0-.864.1088-1.296.2176l-2.592.9792c-.972.3264-1.728 1.088-2.16 1.9584-.432.9792-.54 1.9584-.108 2.9376l1.296 3.4816c.54 1.5232 2.052 2.6112 3.672 2.6112.432 0 .864-.1088 1.296-.2176l.864 2.5024c-.54.3264-1.08.7616-1.404 1.3056-1.08 1.7408-.648 3.808-.54 4.2432.972 6.6368 5.724 18.7136 16.308 18.7136h.864c.216 0 4.104-.4353 8.208-2.3936 2.16-1.088 4.428-2.6112 6.156-4.7872.216-.2176.324-.544.54-.7616v6.4192.2175c0 .7616.648 1.3057 1.296 1.3057.756 0 1.296-.6529 1.296-1.3057v-14.4703c0-6.4192-5.292-11.7504-11.664-11.7504zm6.264 18.7136c-2.808 3.5904-7.452 5.1136-10.26 5.7664-1.296.3264-2.268.4352-2.268.4352-1.08.1088-2.16 0-3.132-.3264-.864-.2176-1.62-.544-2.376-.8704-6.912-3.808-8.748-15.1232-8.748-15.232v-.1088c-.108-.3264-.216-1.5232.216-2.2848.108-.2176.324-.4352.972-.6528 2.268-.4352 3.024 1.3056 3.24 1.632v.1088c.216.3264.432.8704.648 1.4144 1.08 2.6112 2.268 5.2224 3.78 6.9632.432.544.864.9792 1.296 1.3056s.864.544 1.296.7616c.216.1088.432.1088.648.2176.972.2176 2.376 0 3.888-1.632 2.16-2.3936 2.916-6.6368 2.916-6.8544 0-.1088 0-.2176 0-.2176 0-.6528-.432-1.1968-1.08-1.3056-.756-.1088-1.404.3264-1.512 1.088-.216.9792-.864 4.0256-2.268 5.44-.864.8704-1.296.7616-1.512.7616-.324-.1088-.756-.3264-1.08-.6528v-2.72c0-5.0048 3.996-9.0304 8.964-9.0304 3.888 0 7.236 2.6112 8.424 6.0928v.1088.1088c.648 3.808 0 7.072-2.052 9.6832zm-30.672-21.216-1.296-3.4816c-.108-.3264-.108-.6528 0-.8704.108-.3264.324-.544.648-.6528l2.592-.9792c.108 0 .216-.1088.432-.1088.54 0 .972.3264 1.08.7616l1.296 3.4816c.108.3264.108.6528 0 .8704-.108.3264-.324.544-.648.6528l-2.592.9792c-.648.2176-1.296-.1088-1.512-.6528z"/><path d="m13.2402 48.5601c4.212 0 7.56-3.3728 7.56-7.616s-3.348-7.616-7.56-7.616c-4.21202 0-7.56002 3.3728-7.56002 7.616s3.456 7.616 7.56002 7.616zm0-12.512c2.7 0 4.86 2.176 4.86 4.896s-2.16 4.896-4.86 4.896-4.86002-2.176-4.86002-4.896 2.26802-4.896 4.86002-4.896z"/><path d="m31.6 59.549c.324-1.088.432-2.3936-.216-3.6992-.864-1.7408-2.16-2.0672-2.916-2.0672-1.728-.1088-3.24 1.1968-3.996 2.3936-.432.6528-.972 1.1968-1.62 1.632-1.836-4.0256-5.94-6.9632-10.584-6.9632-6.372 0-11.663996 5.2224-11.663996 11.7504v12.9472c0 .7616.647996 1.3056 1.295996 1.3056.756 0 1.296-.6528 1.296-1.3056v-.1088-9.3568c1.512 3.1552 3.996 6.0928 6.588 7.8336.54.3264 1.08.6528 1.728.9792 1.944.9792 4.104 1.4144 6.156 1.4144 1.512 0 3.024-.2176 4.644-.6528h.108c.324 0 .54-.1088.756-.3264 4.104-1.3056 8.1-3.808 10.908-7.072 1.62-1.7408 2.484-5.5488 1.188-7.616-.324-.2176-1.404-1.5232-3.672-1.088zm-7.776 13.056c-.432.2176-.864.3264-1.296.4352s-.864.2176-1.296.3264c-3.456.7616-6.912.4352-9.828-1.4144-3.888-2.72-7.668-8.704-6.804-13.056 0-.2176.108-.4352.108-.6528v-.1088c0-.1088 0-.2176 0-.3264 1.62-2.3936 4.32-4.0256 7.452-4.0256 3.78 0 6.912 2.2848 8.316 5.6576.216.4352.324.8704.432 1.3056s.216.9792.216 1.4144v.6528.1088 1.7408c-1.836-.9792-3.24-4.0256-3.564-5.2224-.216-.7616-.972-1.088-1.728-.8704-.54.2176-.864.6528-.864 1.088v.6528c.216.6528 2.16 6.2016 6.156 7.1808.216 0 .432.1088.648.1088h.756c.54 0 .972-.1088 1.296-.2176.756-.2176 1.296-.6528 1.728-.9792.108-.1088.216-.1088.216-.2176.432-.3264.756-.6528 1.296-.9792.648-.3264 1.188-.7616 1.728-1.1968.108-.1088.324-.2176.432-.3264.864-.6528 1.62-1.3056 2.376-1.5232 1.08-.3264 1.296 0 1.404.1088.54.8704.108 3.3728-.864 4.352-2.16 2.6112-5.076 4.6784-8.316 5.984zm4.536-16.1024c.216 0 .432.3264.648.6528.324.6528.216 1.4144-.324 2.72-.432.8704-.972 1.7408-1.62 2.3936-.324.3264-.756.544-1.08.7616-.648.4352-1.188.7616-1.62 1.088-.108.1088-.216.1088-.432.1088v-1.632c0-.7616-.108-1.4144-.216-2.0672 1.08-.7616 2.16-1.632 3.024-2.9376.432-.6528 1.188-1.088 1.62-1.088z"/><path d="m40.8882 28.7585h7.668c5.508 0 9.936-4.4608 9.936-10.1184v-8.16c0-5.54884-4.428-10.009641-9.936-10.009641h-25.38c-5.508 0-9.936 4.460801-9.936 10.009641v8.16c0 5.5488 4.428 10.1184 9.936 10.1184h5.832c-.216 2.0672-.648 5.5488-.864 7.3984-.108.4352.108.7616.324 1.088s.648.4352.972.4352c.108 0 8.208-.4352 11.448-8.9216zm-9.828 5.984c.432-2.9376.756-6.9632.756-7.1808 0-.4352-.108-.7616-.324-1.088s-.648-.4352-.972-.4352h-7.344c-3.996 0-7.236-3.264-7.236-7.3984v-8.16c0-4.02564 3.24-7.39844 7.236-7.39844h25.38c3.996 0 7.344 3.264 7.344 7.39844v8.16c0 4.0256-3.24 7.3984-7.344 7.3984h-8.64c-.54 0-1.08.4352-1.296.9792-1.728 5.3312-5.4 7.072-7.56 7.7248z"/><path d="m49.8521 18.8576c0-.7616-.648-1.3056-1.296-1.3056h-25.056c-.756 0-1.296.6528-1.296 1.3056s.648 1.3056 1.296 1.3056h24.948c.756 0 1.404-.544 1.404-1.3056z"/><path d="m23.5002 12.5472h17.604c.756 0 1.296-.6528 1.296-1.3056 0-.7616-.648-1.30556-1.296-1.30556h-17.604c-.756 0-1.296.65276-1.296 1.30556-.108.6528.54 1.3056 1.296 1.3056z"/></g></svg>

<svg width="74" height="80" viewBox="0 0 74 80" fill="none" xmlns="http://www.w3.org/2000/svg">
<path d="M52.876 41.8145C52.876 46.0577 56.224 49.4305 60.436 49.4305C64.648 49.4305 67.996 46.0577 67.996 41.8145C67.996 37.5713 64.648 34.1985 60.436 34.1985C56.332 34.1985 52.876 37.5713 52.876 41.8145ZM60.436 46.7105C57.736 46.7105 55.576 44.5345 55.576 41.8145C55.576 39.0945 57.736 36.9185 60.436 36.9185C63.136 36.9185 65.296 39.0945 65.296 41.8145C65.296 44.4257 63.136 46.7105 60.436 46.7105Z" fill="currentColor"/>
<path d="M61.84 51.933C55.9 51.933 50.932 56.5026 50.284 62.3778C49.744 61.2898 49.204 60.2018 48.88 59.4402C48.664 58.8962 48.448 58.3522 48.232 57.917C47.692 56.6114 46.072 54.5442 43.264 54.5442L42.292 51.7154H42.4C43.372 51.389 44.128 50.6274 44.56 49.757C44.992 48.7778 45.1 47.7986 44.668 46.8194L43.48 43.3378C42.94 41.8146 41.428 40.7266 39.808 40.7266C39.376 40.7266 38.944 40.8354 38.512 40.9442L35.92 41.9234C34.948 42.2498 34.192 43.0114 33.76 43.8818C33.328 44.861 33.22 45.8402 33.652 46.8194L34.948 50.301C35.488 51.8242 37 52.9122 38.62 52.9122C39.052 52.9122 39.484 52.8034 39.916 52.6946L40.78 55.197C40.24 55.5234 39.7 55.9586 39.376 56.5026C38.296 58.2434 38.728 60.3106 38.836 60.7458C39.808 67.3826 44.56 79.4594 55.144 79.4594C55.468 79.4594 55.684 79.4594 56.008 79.4594C56.224 79.4594 60.112 79.0241 64.216 77.0658C66.376 75.9778 68.644 74.4546 70.372 72.2786C70.588 72.061 70.696 71.7346 70.912 71.517V77.9362V78.1537C70.912 78.9153 71.56 79.4594 72.208 79.4594C72.964 79.4594 73.504 78.8065 73.504 78.1537V63.6834C73.504 57.2642 68.212 51.933 61.84 51.933ZM68.104 70.6466C65.296 74.237 60.652 75.7602 57.844 76.413C56.548 76.7394 55.576 76.8482 55.576 76.8482C54.496 76.957 53.416 76.8482 52.444 76.5218C51.58 76.3042 50.824 75.9778 50.068 75.6514C43.156 71.8434 41.32 60.5282 41.32 60.4194V60.3106C41.212 59.9842 41.104 58.7874 41.536 58.0258C41.644 57.8082 41.86 57.5906 42.508 57.373C44.776 56.9378 45.532 58.6786 45.748 59.005V59.1138C45.964 59.4402 46.18 59.9842 46.396 60.5282C47.476 63.1394 48.664 65.7506 50.176 67.4914C50.608 68.0354 51.04 68.4706 51.472 68.797C51.904 69.1234 52.336 69.341 52.768 69.5586C52.984 69.6674 53.2 69.6674 53.416 69.7762C54.388 69.9938 55.792 69.7762 57.304 68.1442C59.464 65.7506 60.22 61.5074 60.22 61.2898C60.22 61.181 60.22 61.0722 60.22 61.0722C60.22 60.4194 59.788 59.8754 59.14 59.7666C58.384 59.6578 57.736 60.093 57.628 60.8546C57.412 61.8338 56.764 64.8802 55.36 66.2946C54.496 67.165 54.064 67.0562 53.848 67.0562C53.524 66.9474 53.092 66.7298 52.768 66.4034V63.6834C52.768 58.6786 56.764 54.653 61.732 54.653C65.62 54.653 68.968 57.2642 70.156 60.7458C70.156 60.7458 70.156 60.7458 70.156 60.8546V60.9634C70.804 64.7714 70.156 68.0354 68.104 70.6466ZM37.432 49.4306L36.136 45.949C36.028 45.6226 36.028 45.2962 36.136 45.0786C36.244 44.7522 36.46 44.5346 36.784 44.4258L39.376 43.4466C39.484 43.4466 39.592 43.3378 39.808 43.3378C40.348 43.3378 40.78 43.6642 40.888 44.0994L42.184 47.581C42.292 47.9074 42.292 48.2338 42.184 48.4514C42.076 48.7778 41.86 48.9954 41.536 49.1042L38.944 50.0834C38.296 50.301 37.648 49.9746 37.432 49.4306Z" fill="currentColor"/>
<path d="M13.2402 48.5601C17.4522 48.5601 20.8002 45.1873 20.8002 40.9441C20.8002 36.7009 17.4522 33.3281 13.2402 33.3281C9.02818 33.3281 5.68018 36.7009 5.68018 40.9441C5.68018 45.1873 9.13618 48.5601 13.2402 48.5601ZM13.2402 36.0481C15.9402 36.0481 18.1002 38.2241 18.1002 40.9441C18.1002 43.6641 15.9402 45.8401 13.2402 45.8401C10.5402 45.8401 8.38018 43.6641 8.38018 40.9441C8.38018 38.2241 10.6482 36.0481 13.2402 36.0481Z" fill="currentColor"/>
<path d="M31.6 59.549C31.924 58.461 32.032 57.1554 31.384 55.8498C30.52 54.109 29.224 53.7826 28.468 53.7826C26.74 53.6738 25.228 54.9794 24.472 56.1762C24.04 56.829 23.5 57.373 22.852 57.8082C21.016 53.7826 16.912 50.845 12.268 50.845C5.896 50.845 0.604004 56.0674 0.604004 62.5954V75.5426C0.604004 76.3042 1.252 76.8482 1.9 76.8482C2.656 76.8482 3.196 76.1954 3.196 75.5426V75.4338V66.077C4.708 69.2322 7.192 72.1698 9.784 73.9106C10.324 74.237 10.864 74.5634 11.512 74.8898C13.456 75.869 15.616 76.3042 17.668 76.3042C19.18 76.3042 20.692 76.0866 22.312 75.6514H22.42C22.744 75.6514 22.96 75.5426 23.176 75.325C27.28 74.0194 31.276 71.517 34.084 68.253C35.704 66.5122 36.568 62.7042 35.272 60.637C34.948 60.4194 33.868 59.1138 31.6 59.549ZM23.824 72.605C23.392 72.8226 22.96 72.9314 22.528 73.0402C22.096 73.149 21.664 73.2578 21.232 73.3666C17.776 74.1282 14.32 73.8018 11.404 71.9522C7.516 69.2322 3.736 63.2482 4.6 58.8962C4.6 58.6786 4.708 58.461 4.708 58.2434V58.1346C4.708 58.0258 4.708 57.917 4.708 57.8082C6.328 55.4146 9.028 53.7826 12.16 53.7826C15.94 53.7826 19.072 56.0674 20.476 59.4402C20.692 59.8754 20.8 60.3106 20.908 60.7458C21.016 61.181 21.124 61.725 21.124 62.1602C21.124 62.3778 21.124 62.5954 21.124 62.813V62.9218V64.6626C19.288 63.6834 17.884 60.637 17.56 59.4402C17.344 58.6786 16.588 58.3522 15.832 58.5698C15.292 58.7874 14.968 59.2226 14.968 59.6578C14.968 59.8754 14.968 60.093 14.968 60.3106C15.184 60.9634 17.128 66.5122 21.124 67.4914C21.34 67.4914 21.556 67.6002 21.772 67.6002C21.988 67.6002 22.312 67.6002 22.528 67.6002C23.068 67.6002 23.5 67.4914 23.824 67.3826C24.58 67.165 25.12 66.7298 25.552 66.4034C25.66 66.2946 25.768 66.2946 25.768 66.1858C26.2 65.8594 26.524 65.533 27.064 65.2066C27.712 64.8802 28.252 64.445 28.792 64.0098C28.9 63.901 29.116 63.7922 29.224 63.6834C30.088 63.0306 30.844 62.3778 31.6 62.1602C32.68 61.8338 32.896 62.1602 33.004 62.269C33.544 63.1394 33.112 65.6418 32.14 66.621C29.98 69.2322 27.064 71.2994 23.824 72.605ZM28.36 56.5026C28.576 56.5026 28.792 56.829 29.008 57.1554C29.332 57.8082 29.224 58.5698 28.684 59.8754C28.252 60.7458 27.712 61.6162 27.064 62.269C26.74 62.5954 26.308 62.813 25.984 63.0306C25.336 63.4658 24.796 63.7922 24.364 64.1186C24.256 64.2274 24.148 64.2274 23.932 64.2274V62.5954C23.932 61.8338 23.824 61.181 23.716 60.5282C24.796 59.7666 25.876 58.8962 26.74 57.5906C27.172 56.9378 27.928 56.5026 28.36 56.5026Z" fill="currentColor"/>
<path d="M40.8882 28.7585H48.5562C54.0642 28.7585 58.4922 24.2977 58.4922 18.6401V10.4801C58.4922 4.93126 54.0642 0.470459 48.5562 0.470459H23.1762C17.6682 0.470459 13.2402 4.93126 13.2402 10.4801V18.6401C13.2402 24.1889 17.6682 28.7585 23.1762 28.7585H29.0082C28.7922 30.8257 28.3602 34.3073 28.1442 36.1569C28.0362 36.5921 28.2522 36.9185 28.4682 37.2449C28.6842 37.5713 29.1162 37.6801 29.4402 37.6801C29.5482 37.6801 37.6482 37.2449 40.8882 28.7585ZM31.0602 34.7425C31.4922 31.8049 31.8162 27.7793 31.8162 27.5617C31.8162 27.1265 31.7082 26.8001 31.4922 26.4737C31.2762 26.1473 30.8442 26.0385 30.5202 26.0385H23.1762C19.1802 26.0385 15.9402 22.7745 15.9402 18.6401V10.4801C15.9402 6.45446 19.1802 3.08166 23.1762 3.08166H48.5562C52.5522 3.08166 55.9002 6.34566 55.9002 10.4801V18.6401C55.9002 22.6657 52.6602 26.0385 48.5562 26.0385H39.9162C39.3762 26.0385 38.8362 26.4737 38.6202 27.0177C36.8922 32.3489 33.2202 34.0897 31.0602 34.7425Z" fill="currentColor"/>
<path d="M49.8521 18.8576C49.8521 18.096 49.2041 17.552 48.5561 17.552H23.5001C22.7441 17.552 22.2041 18.2048 22.2041 18.8576C22.2041 19.5104 22.8521 20.1632 23.5001 20.1632H48.4481C49.2041 20.1632 49.8521 19.6192 49.8521 18.8576Z" fill="currentColor"/>
<path d="M23.5002 12.5472H41.1042C41.8602 12.5472 42.4002 11.8944 42.4002 11.2416C42.4002 10.48 41.7522 9.93604 41.1042 9.93604H23.5002C22.7442 9.93604 22.2042 10.5888 22.2042 11.2416C22.0962 11.8944 22.7442 12.5472 23.5002 12.5472Z" fill="currentColor"/>
</svg>
